packages/bezier-icons/icons/snooze.svg

<svg width="24" height="24" viewBox="0 0 24 24" fill="none" xmlns="http://www.w3.org/2000/svg">
<path fill-rule="evenodd" clip-rule="evenodd" d="M6.34314 0.707108C6.73366 1.09763 6.73366 1.7308 6.34314 2.12132L3.51471 4.94975C3.12418 5.34027 2.49102 5.34027 2.1005 4.94975C1.70997 4.55922 1.70997 3.92606 2.1005 3.53554L4.92892 0.707108C5.31945 0.316584 5.95261 0.316584 6.34314 0.707108ZM17.6569 0.707119C18.0474 0.316595 18.6805 0.316594 19.0711 0.707119L21.8995 3.53555C22.29 3.92607 22.29 4.55924 21.8995 4.94976C21.509 5.34028 20.8758 5.34028 20.4853 4.94976L17.6569 2.12133C17.2663 1.73081 17.2663 1.09764 17.6569 0.707119ZM4 12.0208C4 16.4391 7.58172 20.0208 12 20.0208C16.4183 20.0208 20 16.4391 20 12.0208C20 7.60255 16.4183 4.02083 12 4.02083C7.58172 4.02083 4 7.60255 4 12.0208ZM12 2.02083C6.47715 2.02083 2 6.49798 2 12.0208C2 17.5437 6.47715 22.0208 12 22.0208C17.5228 22.0208 22 17.5437 22 12.0208C22 6.49798 17.5228 2.02083 12 2.02083ZM12 6.02083C12.5523 6.02083 13 6.46854 13 7.02083V11.3364L15.6397 12.688C16.1312 12.9397 16.3257 13.5422 16.074 14.0338C15.8223 14.5254 15.2197 14.7199 14.7281 14.4682L11.5442 12.8379C11.2102 12.6669 11 12.3232 11 11.9478V7.02083C11 6.46854 11.4477 6.02083 12 6.02083Z" fill="#313234"/>
</svg>

<svg xmlns="http://www.w3.org/2000/svg" width="24" height="24" fill="none" viewBox="0 0 24 24"><path fill="#313234" fill-rule="evenodd" d="M6.343.707a1 1 0 0 1 0 1.414L3.515 4.95A1 1 0 0 1 2.1 3.536L4.93.707a1 1 0 0 1 1.414 0m11.314 0a1 1 0 0 1 1.414 0L21.9 3.536a1 1 0 0 1-1.414 1.414L17.657 2.12a1 1 0 0 1 0-1.414M4 12.021a8 8 0 1 0 16 0 8 8 0 0 0-16 0m8-10c-5.523 0-10 4.477-10 10s4.477 10 10 10 10-4.477 10-10-4.477-10-10-10m0 4a1 1 0 0 1 1 1v4.315l2.64 1.352a1 1 0 0 1-.912 1.78l-3.184-1.63a1 1 0 0 1-.544-.89V7.02a1 1 0 0 1 1-1" clip-rule="evenodd"/></svg>
